X: 4057
T: Blencathra
R: jig
M: 6/8
K: Bminor
|:FBB BAB|~d3 ded|cec cBA|cBA FED|
EFB BAB|~d3 ded|cec cBA|1 BcB B2A:|2 BcB Bce||
fBB fed|efe ede|fBB fef|agf efg|
faf fed|efe edc|B2d cAF|BcB Bce|
fBB fed|efe ede|fBB fef|agf efg|
faf fed|efe efa|bff agf|efe dBA||

